X:1
T:Out on the Ocean (jig)
M:6/8
L:1/8
O:Trad. (29.11.2013/NS)
R:jig
K:Gmaj
|:"G"D2B BAG|BdB A2B|"C"GED G2A|B2B AGE|
"G"D2B BAG|BdB A2B|"C"GED G2A|"D"BGG G3:|
|:"Em"e2e edB|e2e edB|"D"d2d dBA|"(C)"d2d dBA|
"G"G2A "G/F#"B2d|"Em"ege "D"dBA|"C"GED G2A|"D"BGG G3:|
